icons/blood_ab_n.svg

<svg width="48" height="48" viewBox="0 0 48 48" fill="none" xmlns="http://www.w3.org/2000/svg">
<path fill-rule="evenodd" clip-rule="evenodd" d="M20.3879 5.53462C22.3567 3.48846 25.6433 3.48846 27.6121 5.53462L28.1398 6.0831H33.3302C35.903 6.0831 38 8.1569 38 10.7289V15.5H36V10.7289C36 9.27385 34.8109 8.0831 33.3302 8.0831H27.7143C27.4424 8.0831 27.1822 7.97238 26.9937 7.77645L26.1709 6.92133C24.9889 5.69289 23.0111 5.69289 21.8291 6.92133L21.0063 7.77645C20.8178 7.97238 20.5576 8.0831 20.2857 8.0831H15C13.3369 8.0831 12 9.4207 12 11.0569V28.9709C13.3017 28.9498 14.5326 28.9875 15.7005 29.0306C15.8789 29.0371 16.0556 29.0438 16.2306 29.0505C17.5139 29.0991 18.711 29.1444 19.8818 29.1195C22.5089 29.0636 24.924 28.6537 27.4919 27.1387C30.6105 25.2987 33.2501 25.8513 35.0748 26.9132C35.4135 27.1103 35.7222 27.3234 36 27.5388V22.5H38V33.0262C38 35.7794 35.7552 38 33 38H30V40H25V44H23V40H18V38H15C12.2448 38 10 35.7793 10 33.0262V11.0569C10 8.30376 12.2448 6.0831 15 6.0831H19.8602L20.3879 5.53462ZM15 36C13.3369 36 12 34.6624 12 33.0262V30.9712C13.2549 30.9498 14.4539 30.9859 15.6267 31.0292C15.8025 31.0357 15.9779 31.0423 16.1531 31.049C17.4295 31.0974 18.6899 31.1453 19.9243 31.119C22.766 31.0586 25.551 30.6059 28.5081 28.8612C30.9145 27.4415 32.7749 27.8888 34.0689 28.6418C34.7407 29.0328 35.2727 29.5177 35.6392 29.9108C35.7913 30.0741 35.9122 30.2186 36 30.3295V33.0262C36 34.6624 34.6631 36 33 36H15Z" fill="black"/>
<path fill-rule="evenodd" clip-rule="evenodd" d="M19.4162 14.5991C19.2569 14.2351 18.8973 14 18.5 14C18.1027 14 17.7431 14.2351 17.5838 14.5991L14.9676 20.5791C14.9613 20.5926 14.9553 20.6063 14.9496 20.6201L14.0838 22.5991C13.8625 23.1051 14.0932 23.6947 14.5992 23.9161C15.1052 24.1375 15.6948 23.9067 15.9162 23.4008L16.529 22H20.471L21.0838 23.4008C21.3052 23.9067 21.8948 24.1375 22.4008 23.9161C22.9068 23.6947 23.1375 23.1051 22.9162 22.5991L22.0504 20.6201C22.0447 20.6063 22.0387 20.5926 22.0324 20.5791L19.4162 14.5991ZM18.5 17.4948L19.596 20H17.404L18.5 17.4948Z" fill="black"/>
<path fill-rule="evenodd" clip-rule="evenodd" d="M24 15C24 14.4477 24.4477 14 25 14H28.125C29.7726 14 31 15.4049 31 17C31 17.7511 30.7278 18.46 30.2678 19C30.7278 19.5399 31 20.2488 31 21C31 22.595 29.7726 24 28.125 24H25C24.7348 24 24.4804 23.8946 24.2929 23.7071C24.1054 23.5195 24 23.2652 24 23V15ZM28.125 18C28.5484 18 29 17.614 29 17C29 16.3859 28.5484 16 28.125 16H26V18H28.125ZM29 21C29 21.614 28.5484 22 28.125 22H26V20H28.125C28.5484 20 29 20.3859 29 21Z" fill="black"/>
<path d="M34 18C33.4477 18 33 18.4477 33 19C33 19.5522 33.4477 20 34 20H37C37.5523 20 38 19.5522 38 19C38 18.4477 37.5523 18 37 18H34Z" fill="black"/>
</svg>

<svg
  xmlns="http://www.w3.org/2000/svg"
  width="24"
  height="24"
  viewBox="0 0 24 24"
  fill="none"
  stroke="currentColor"
  stroke-width="2"
  stroke-linecap="round"
  stroke-linejoin="round"
>
  <path
    fill-rule="evenodd"
    d="M20.388 5.535a5.02 5.02 0 0 1 7.224 0l.528.548h5.19c2.573 0 4.67 2.074 4.67 4.646V15.5h-2v-4.771a2.66 2.66 0 0 0-2.67-2.646h-5.616a1 1 0 0 1-.72-.307l-.823-.855a3.02 3.02 0 0 0-4.342 0l-.823.855a1 1 0 0 1-.72.307H15c-1.663 0-3 1.338-3 2.974V28.97a69 69 0 0 1 3.7.06l.53.02c1.284.048 2.481.093 3.652.069 2.627-.056 5.042-.466 7.61-1.981 3.118-1.84 5.758-1.288 7.583-.226.338.197.647.41.925.626V22.5h2v10.526C38 35.78 35.755 38 33 38h-3v2h-5v4h-2v-4h-5v-2h-3c-2.755 0-5-2.22-5-4.974v-21.97c0-2.752 2.245-4.973 5-4.973h4.86zM15 36c-1.663 0-3-1.338-3-2.974v-2.055a66 66 0 0 1 3.627.058l.526.02c1.277.048 2.537.096 3.771.07 2.842-.06 5.627-.513 8.584-2.258 2.407-1.42 4.267-.972 5.56-.22A7 7 0 0 1 36 30.33v2.696C36 34.662 34.663 36 33 36z"
    clip-rule="evenodd"
  />
  <path
    fill-rule="evenodd"
    d="M19.416 14.6a1 1 0 0 0-1.832 0l-2.616 5.98-.018.04-.866 1.98a1 1 0 0 0 1.832.8l.613-1.4h3.942l.613 1.4a1 1 0 0 0 1.832-.8l-.866-1.98-.018-.04zm-.916 2.895L19.596 20h-2.192z"
    clip-rule="evenodd"
  />
  <path
    fill-rule="evenodd"
    d="M24 15a1 1 0 0 1 1-1h3.125C29.773 14 31 15.405 31 17a3.1 3.1 0 0 1-.732 2c.46.54.732 1.249.732 2 0 1.595-1.227 3-2.875 3H25a1 1 0 0 1-1-1zm4.125 3c.423 0 .875-.386.875-1s-.452-1-.875-1H26v2zM29 21c0 .614-.452 1-.875 1H26v-2h2.125c.423 0 .875.386.875 1"
    clip-rule="evenodd"
  />
  <path d="M34 18a1 1 0 1 0 0 2h3a1 1 0 0 0 0-2z" />
</svg>
